; generated by Slic3r 1.3.0 on 2023-02-14 at 08:51:00

; external perimeters extrusion width = 0.44mm (7.46mm^3/s)
; perimeters extrusion width = 0.56mm (9.76mm^3/s)
; infill extrusion width = 0.50mm (8.61mm^3/s)
; solid infill extrusion width = 0.56mm (9.76mm^3/s)
; top infill extrusion width = 0.56mm (6.10mm^3/s)
; support material extrusion width = 0.44mm (7.46mm^3/s)

M107
M104 S180 ; set temperature
G28 ; home all axes
G1 Z5 F5000 ; lift nozzle

; Filament gcode

M109 S180 ; set temperature and wait for it to be reached
G21 ; set units to millimeters
G90 ; use absolute coordinates
M82 ; use absolute distances for extrusion
G92 E0
G1 Z0.240 F9000.000
G1 E-5.00000 F4800.00000
G92 E0
G1 X99.389 Y64.798 F9000.000
G1 E5.00000 F4800.00000
G1 F4800
G1 X100.010 Y63.850 E5.04844
G1 X100.664 Y62.977 E5.09507
G1 X101.604 Y61.891 E5.15650
G1 X102.472 Y61.016 E5.20917
G1 X103.273 Y60.307 E5.25491
G1 X103.926 Y59.787 E5.29062
G1 X104.791 Y59.168 E5.33610
G1 X105.830 Y58.520 E5.38845
G1 X107.065 Y57.862 E5.44830
G1 X108.032 Y57.428 E5.49360
G1 X109.109 Y57.023 E5.54277
G1 X109.719 Y56.824 E5.57025
G1 X110.430 Y56.623 E5.60181
G1 X111.416 Y56.395 E5.64508
G1 X112.513 Y56.209 E5.69264
G1 X113.872 Y56.066 E5.75107
G1 X114.743 Y56.029 E5.78835
G1 X144.999 Y56.026 E7.08195
G1 X146.415 Y56.081 E7.14254
G1 X147.177 Y56.156 E7.17527
G1 X148.133 Y56.295 E7.21661
G1 X148.909 Y56.446 E7.25041
G1 X149.900 Y56.690 E7.29404
G1 X150.652 Y56.915 E7.32759
G1 X151.616 Y57.256 E7.37131
G1 X152.992 Y57.853 E7.43543
G1 X154.030 Y58.391 E7.48543
G1 X154.604 Y58.731 E7.51395
G1 X155.603 Y59.384 E7.56498
G1 X155.969 Y59.651 E7.58433
G1 X157.373 Y60.803 E7.66202
G1 X158.454 Y61.864 E7.72675
G1 X159.145 Y62.645 E7.77134
G1 X159.666 Y63.299 E7.80712
G1 X160.285 Y64.163 E7.85255
G1 X160.719 Y64.840 E7.88693
G1 X161.231 Y65.731 E7.93085
G1 X161.775 Y66.835 E7.98350
G1 X162.299 Y68.108 E8.04235
G1 X162.524 Y68.766 E8.07207
G1 X162.830 Y69.803 E8.11830
G1 X163.053 Y70.766 E8.16056
G1 X163.244 Y71.885 E8.20912
G1 X163.388 Y73.266 E8.26845
G1 X163.427 Y74.454 E8.31930
G1 X163.427 Y93.970 E9.15371
G1 X163.347 Y125.585 E10.50542
G1 X163.328 Y126.322 E10.53694
G1 X163.292 Y126.963 E10.56439
G1 X163.220 Y127.701 E10.59609
G1 X163.134 Y128.323 E10.62295
G1 X162.931 Y129.433 E10.67119
G1 X162.683 Y130.446 E10.71580
G1 X162.457 Y131.200 E10.74941
G1 X162.108 Y132.187 E10.79420
G1 X161.520 Y133.538 E10.85720
G1 X160.981 Y134.578 E10.90728
G1 X160.439 Y135.480 E10.95228
G1 X159.974 Y136.171 E10.98788
G1 X159.336 Y137.022 E11.03335
G1 X158.569 Y137.921 E11.08385
G1 X157.509 Y139.001 E11.14858
G1 X156.728 Y139.692 E11.19317
G1 X156.073 Y140.214 E11.22896
G1 X155.209 Y140.832 E11.27438
G1 X154.532 Y141.267 E11.30879
G1 X153.642 Y141.778 E11.35266
G1 X152.569 Y142.308 E11.40387
G1 X151.969 Y142.571 E11.43187
G1 X151.263 Y142.847 E11.46424
G1 X150.281 Y143.176 E11.50853
G1 X149.546 Y143.383 E11.54117
G1 X148.607 Y143.601 E11.58241
G1 X147.487 Y143.791 E11.63096
G1 X146.128 Y143.934 E11.68939
G1 X144.918 Y143.974 E11.74114
G1 X115.001 Y143.974 E13.02026
G1 X113.924 Y143.940 E13.06636
G1 X112.846 Y143.847 E13.11263
G1 X111.867 Y143.705 E13.15492
G1 X111.091 Y143.554 E13.18872
G1 X110.101 Y143.310 E13.23232
G1 X109.347 Y143.084 E13.26594
G1 X108.361 Y142.736 E13.31066
G1 X107.284 Y142.277 E13.36072
G1 X105.969 Y141.608 E13.42378
G1 X105.066 Y141.066 E13.46881
G1 X104.376 Y140.602 E13.50436
G1 X103.525 Y139.964 E13.54985
G1 X102.626 Y139.197 E13.60037
G1 X101.546 Y138.137 E13.66507
G1 X100.855 Y137.354 E13.70972
G1 X100.334 Y136.701 E13.74545
G1 X99.715 Y135.837 E13.79088
G1 X99.293 Y135.181 E13.82425
G1 X98.930 Y134.557 E13.85509
G1 X98.408 Y133.562 E13.90315
G1 X98.137 Y132.969 E13.93100
G1 X97.975 Y132.596 E13.94841
G1 X97.570 Y131.518 E13.99761
G1 X97.371 Y130.908 E14.02508
G1 X97.170 Y130.197 E14.05667
G1 X96.942 Y129.211 E14.09992
G1 X96.717 Y127.825 E14.15994
G1 X96.613 Y126.756 E14.20587
G1 X96.576 Y125.864 E14.24404
G1 X96.573 Y105.991 E15.09375
G1 X96.653 Y74.415 E16.44378
G1 X96.672 Y73.678 E16.47529
G1 X96.708 Y73.037 E16.50275
G1 X96.780 Y72.300 E16.53442
G1 X96.926 Y71.296 E16.57780
G1 X97.069 Y70.567 E16.60956
G1 X97.218 Y69.938 E16.63717
G1 X97.535 Y68.823 E16.68675
G1 X97.892 Y67.813 E16.73253
G1 X98.350 Y66.737 E16.78257
G1 X99.019 Y65.422 E16.84562
G1 X99.358 Y64.849 E16.87409
G1 E11.87409 F4800.00000
G92 E0
G1 X101.374 Y65.992 F9000.000
G1 E5.00000 F4800.00000
G1 F4800
G1 X101.962 Y65.103 E5.04559
G1 X102.638 Y64.216 E5.09328
G1 X103.512 Y63.239 E5.14931
G1 X103.866 Y62.883 E5.17079
G1 X104.698 Y62.135 E5.21863
G1 X105.523 Y61.486 E5.26355
G1 X106.508 Y60.812 E5.31458
G1 X107.407 Y60.286 E5.35909
G1 X108.159 Y59.906 E5.39514
G1 X109.075 Y59.503 E5.43792
G1 X109.770 Y59.245 E5.46964
G1 X110.854 Y58.906 E5.51821
G1 X111.786 Y58.683 E5.55920
G1 X112.583 Y58.536 E5.59384
G1 X113.788 Y58.392 E5.64573
G1 X114.879 Y58.343 E5.69242
G1 X145.078 Y58.342 E6.98382
G1 X146.403 Y58.403 E7.04057
G1 X147.518 Y58.542 E7.08861
G1 X148.234 Y58.670 E7.11972
G1 X149.193 Y58.899 E7.16188
G1 X149.759 Y59.060 E7.18703
G1 X150.714 Y59.391 E7.23027
G1 X151.504 Y59.712 E7.26672
G1 X152.229 Y60.054 E7.30101
G1 X152.670 Y60.283 E7.32227
G1 X153.481 Y60.758 E7.36244
G1 X154.127 Y61.176 E7.39536
G1 X155.044 Y61.852 E7.44408
G1 X155.558 Y62.280 E7.47266
G1 X156.214 Y62.884 E7.51080
G1 X156.570 Y63.239 E7.53231
G1 X157.208 Y63.944 E7.57295
G1 X157.494 Y64.281 E7.59189
G1 X157.967 Y64.896 E7.62507
G1 X158.641 Y65.880 E7.67606
G1 X159.283 Y66.998 E7.73118
G1 X159.582 Y67.605 E7.76011
G1 X159.857 Y68.221 E7.78897
G1 X160.184 Y69.069 E7.82782
G1 X160.527 Y70.150 E7.87631
G1 X160.838 Y71.489 E7.93513
G1 X161.016 Y72.704 E7.98763
G1 X161.088 Y73.612 E8.02655
G1 X161.111 Y74.386 E8.05970
G1 X161.099 Y94.553 E8.92208
G1 X161.020 Y95.689 E8.97079
G1 X160.911 Y96.489 E9.00532
G1 X160.783 Y97.206 E9.03644
G1 X160.485 Y98.420 E9.08991
G1 X160.256 Y99.142 E9.12230
G1 X159.919 Y100.056 E9.16394
G1 X159.918 Y100.145 E9.16777
G1 X160.313 Y101.271 E9.21877
G1 X160.447 Y101.725 E9.23903
G1 X160.689 Y102.735 E9.28342
G1 X160.837 Y103.531 E9.31807
G1 X160.936 Y104.280 E9.35036
G1 X161.007 Y105.187 E9.38928
G1 X161.031 Y105.962 E9.42243
G1 X161.018 Y126.128 E10.28481
G1 X160.939 Y127.265 E10.33352
G1 X160.807 Y128.216 E10.37460
G1 X160.647 Y129.037 E10.41037
G1 X160.405 Y129.996 E10.45264
G1 X160.176 Y130.718 E10.48503
G1 X159.855 Y131.593 E10.52491
G1 X159.319 Y132.776 E10.58045
G1 X159.089 Y133.218 E10.60174
G1 X158.615 Y134.028 E10.64188
G1 X158.196 Y134.674 E10.67482
G1 X157.585 Y135.502 E10.71882
G1 X157.037 Y136.166 E10.75565
G1 X156.488 Y136.761 E10.79023
G1 X155.870 Y137.362 E10.82712
G1 X155.091 Y138.042 E10.87132
G1 X154.476 Y138.515 E10.90449
G1 X153.492 Y139.189 E10.95551
G1 X152.613 Y139.701 E10.99903
G1 X151.695 Y140.162 E11.04295
G1 X150.626 Y140.614 E11.09258
G1 X149.448 Y141.009 E11.14569
G1 X148.366 Y141.283 E11.19344
G1 X147.417 Y141.464 E11.23475
G1 X146.213 Y141.608 E11.28661
G1 X144.986 Y141.658 E11.33910
G1 X114.922 Y141.658 E12.62474
G1 X113.833 Y141.617 E12.67134
G1 X113.025 Y141.535 E12.70607
G1 X112.076 Y141.391 E12.74713
G1 X111.354 Y141.238 E12.77870
G1 X110.551 Y141.032 E12.81411
G1 X109.829 Y140.803 E12.84650
G1 X108.954 Y140.483 E12.88635
G1 X108.497 Y140.288 E12.90763
G1 X107.329 Y139.717 E12.96320
G1 X106.519 Y139.242 E13.00336
G1 X105.873 Y138.824 E13.03627
G1 X105.045 Y138.212 E13.08028
G1 X104.381 Y137.664 E13.11712
G1 X103.786 Y137.116 E13.15170
G1 X103.185 Y136.498 E13.18858
G1 X102.505 Y135.718 E13.23280
G1 X102.033 Y135.104 E13.26595
G1 X101.359 Y134.119 E13.31697
G1 X100.833 Y133.221 E13.36149
G1 X100.604 Y132.785 E13.38254
G1 X100.050 Y131.553 E13.44030
G1 X99.664 Y130.476 E13.48923
G1 X99.352 Y129.375 E13.53816
G1 X99.162 Y128.510 E13.57602
G1 X99.083 Y128.044 E13.59623
G1 X98.939 Y126.840 E13.64810
G1 X98.889 Y125.613 E13.70059
G1 X98.901 Y105.448 E14.56295
G1 X98.980 Y104.311 E14.61166
G1 X99.089 Y103.510 E14.64622
G1 X99.217 Y102.794 E14.67733
G1 X99.515 Y101.580 E14.73080
G1 X99.744 Y100.858 E14.76318
G1 X100.081 Y99.943 E14.80486
G1 X100.083 Y99.855 E14.80864
G1 X99.872 Y99.282 E14.83477
G1 X99.618 Y98.500 E14.86993
G1 X99.311 Y97.265 E14.92432
G1 X99.163 Y96.469 E14.95896
G1 X99.064 Y95.719 E14.99131
G1 X98.993 Y94.813 E15.03017
G1 X98.969 Y94.038 E15.06333
G1 X98.982 Y73.872 E15.92568
G1 X99.060 Y72.736 E15.97439
G1 X99.193 Y71.783 E16.01553
G1 X99.389 Y70.807 E16.05812
G1 X99.688 Y69.694 E16.10738
G1 X100.018 Y68.739 E16.15061
G1 X100.340 Y67.949 E16.18705
G1 X100.911 Y66.782 E16.24261
G1 X101.343 Y66.043 E16.27922
G1 X101.741 Y66.213 F9000.000
G1 F4800
G1 X102.310 Y65.353 E16.32331
G1 X102.969 Y64.488 E16.36983
G1 X103.821 Y63.536 E16.42446
G1 X104.164 Y63.191 E16.44524
G1 X104.976 Y62.462 E16.49190
G1 X105.775 Y61.832 E16.53543
G1 X106.735 Y61.175 E16.58518
G1 X107.613 Y60.662 E16.62866
G1 X108.342 Y60.294 E16.66357
G1 X109.235 Y59.900 E16.70532
G1 X109.909 Y59.650 E16.73604
G1 X110.966 Y59.320 E16.78339
G1 X111.876 Y59.103 E16.82341
G1 X112.647 Y58.960 E16.85695
G1 X113.822 Y58.819 E16.90755
G1 X114.885 Y58.772 E16.95306
G1 X145.075 Y58.771 E18.24407
G1 X146.367 Y58.830 E18.29938
G1 X147.454 Y58.966 E18.34620
G1 X148.147 Y59.089 E18.37633
G1 X149.083 Y59.313 E18.41749
G1 X149.631 Y59.470 E18.44185
G1 X150.564 Y59.792 E18.48406
G1 X151.328 Y60.103 E18.51936
G1 X152.039 Y60.438 E18.55296
G1 X152.466 Y60.660 E18.57352
G1 X153.258 Y61.124 E18.61276
G1 X153.883 Y61.529 E18.64464
G1 X154.778 Y62.189 E18.69219
G1 X155.275 Y62.602 E18.71984
G1 X155.917 Y63.194 E18.75716
G1 X156.262 Y63.537 E18.77796
G1 X156.885 Y64.225 E18.81767
G1 X157.163 Y64.553 E18.83603
G1 X157.621 Y65.148 E18.86816
G1 X158.278 Y66.108 E18.91788
G1 X158.903 Y67.197 E18.97161
G1 X159.463 Y68.389 E19.02792
G1 X159.779 Y69.210 E19.06553
G1 X160.114 Y70.264 E19.11281
G1 X160.417 Y71.569 E19.17010
G1 X160.591 Y72.753 E19.22130
G1 X160.659 Y73.632 E19.25897
G1 X160.682 Y74.389 E19.29136
G1 X160.670 Y94.535 E20.15286
G1 X160.594 Y95.643 E20.20036
G1 X160.487 Y96.425 E20.23412
G1 X160.364 Y97.119 E20.26426
G1 X160.179 Y97.906 E20.29884
G1 X159.983 Y98.603 E20.32978
G1 X159.715 Y99.388 E20.36527
G1 X159.455 Y100.051 E20.39574
G1 X159.454 Y100.141 E20.39957
G1 X159.699 Y100.786 E20.42905
G1 X159.904 Y101.400 E20.45674
G1 X160.034 Y101.839 E20.47633
G1 X160.238 Y102.677 E20.51319
G1 X160.413 Y103.595 E20.55318
G1 X160.510 Y104.329 E20.58483
G1 X160.579 Y105.207 E20.62250
G1 X160.602 Y105.964 E20.65489
G1 X160.590 Y126.110 E21.51639
G1 X160.513 Y127.218 E21.56389
G1 X160.384 Y128.147 E21.60399
G1 X160.229 Y128.943 E21.63866
G1 X159.993 Y129.878 E21.67992
G1 X159.771 Y130.577 E21.71128
G1 X159.458 Y131.433 E21.75025
G1 X158.934 Y132.586 E21.80439
G1 X158.713 Y133.013 E21.82499
G1 X158.249 Y133.805 E21.86421
G1 X157.844 Y134.431 E21.89610
G1 X157.247 Y135.239 E21.93906
G1 X156.716 Y135.882 E21.97472
G1 X156.179 Y136.464 E22.00860
G1 X155.580 Y137.047 E22.04431
G1 X154.820 Y137.710 E22.08746
G1 X154.224 Y138.168 E22.11958
G1 X153.265 Y138.825 E22.16932
G1 X152.406 Y139.325 E22.21181
G1 X151.517 Y139.772 E22.25437
G1 X150.475 Y140.213 E22.30276
G1 X149.327 Y140.598 E22.35454
G1 X148.272 Y140.865 E22.40109
G1 X147.353 Y141.040 E22.44108
G1 X146.179 Y141.181 E22.49165
G1 X144.984 Y141.229 E22.54278
G1 X114.925 Y141.229 E23.82821
G1 X113.862 Y141.189 E23.87369
G1 X113.079 Y141.110 E23.90732
G1 X112.153 Y140.969 E23.94740
G1 X111.453 Y140.821 E23.97797
G1 X110.669 Y140.620 E24.01261
G1 X109.970 Y140.398 E24.04397
G1 X109.115 Y140.085 E24.08290
G1 X108.672 Y139.897 E24.10349
G1 X107.534 Y139.340 E24.15766
G1 X106.742 Y138.876 E24.19690
G1 X106.117 Y138.471 E24.22877
G1 X105.308 Y137.874 E24.27173
G1 X104.665 Y137.343 E24.30740
G1 X104.083 Y136.806 E24.34128
G1 X103.501 Y136.208 E24.37699
G1 X102.837 Y135.447 E24.42016
G1 X102.379 Y134.852 E24.45226
G1 X101.722 Y133.892 E24.50200
G1 X101.209 Y133.014 E24.54548
G1 X100.987 Y132.592 E24.56585
G1 X100.447 Y131.392 E24.62214
G1 X100.071 Y130.342 E24.66984
G1 X99.769 Y129.276 E24.71724
G1 X99.583 Y128.431 E24.75422
G1 X99.507 Y127.980 E24.77377
G1 X99.367 Y126.806 E24.82436
G1 X99.318 Y125.611 E24.87548
G1 X99.330 Y105.466 E25.73696
G1 X99.406 Y104.358 E25.78445
G1 X99.513 Y103.575 E25.81825
G1 X99.636 Y102.881 E25.84838
G1 X99.821 Y102.094 E25.88294
G1 X100.017 Y101.397 E25.91391
G1 X100.285 Y100.612 E25.94937
G1 X100.545 Y99.949 E25.97982
G1 X100.545 Y99.858 E25.98372
G1 X100.328 Y99.287 E26.00983
G1 X100.104 Y98.620 E26.03994
G1 X99.947 Y98.086 E26.06374
G1 X99.762 Y97.323 E26.09729
G1 X99.587 Y96.405 E26.13728
G1 X99.490 Y95.670 E26.16898
G1 X99.421 Y94.793 E26.20660
G1 X99.398 Y94.036 E26.23899
G1 X99.410 Y73.890 E27.10047
G1 X99.487 Y72.782 E27.14796
G1 X99.616 Y71.852 E27.18812
G1 X99.806 Y70.906 E27.22938
G1 X100.097 Y69.822 E27.27741
G1 X100.420 Y68.889 E27.31961
G1 X100.731 Y68.125 E27.35490
G1 X101.287 Y66.987 E27.40907
G1 X101.710 Y66.264 E27.44487
G1 X102.108 Y66.434 F9000.000
G1 F4800
G1 X102.658 Y65.603 E27.48745
G1 X103.300 Y64.759 E27.53280
G1 X104.131 Y63.832 E27.58603
G1 X104.462 Y63.499 E27.60610
G1 X105.253 Y62.788 E27.65160
G1 X106.027 Y62.179 E27.69373
G1 X106.962 Y61.538 E27.74220
G1 X107.819 Y61.038 E27.78464
G1 X108.524 Y60.681 E27.81841
G1 X109.396 Y60.298 E27.85915
G1 X110.047 Y60.056 E27.88887
G1 X111.077 Y59.733 E27.93500
G1 X111.965 Y59.522 E27.97404
G1 X112.711 Y59.384 E28.00648
G1 X113.856 Y59.247 E28.05579
G1 X114.892 Y59.201 E28.10013
G1 X145.073 Y59.199 E29.39075
G1 X146.331 Y59.257 E29.44460
G1 X147.389 Y59.389 E29.49022
G1 X148.060 Y59.509 E29.51937
G1 X148.973 Y59.727 E29.55952
G1 X149.503 Y59.879 E29.58310
G1 X150.414 Y60.194 E29.62428
G1 X151.153 Y60.495 E29.65842
G1 X151.849 Y60.823 E29.69132
G1 X152.261 Y61.037 E29.71119
G1 X153.035 Y61.489 E29.74951
G1 X153.640 Y61.882 E29.78035
G1 X154.513 Y62.525 E29.82673
G1 X154.993 Y62.925 E29.85344
G1 X155.621 Y63.503 E29.88995
G1 X155.954 Y63.835 E29.91004
G1 X156.562 Y64.507 E29.94882
G1 X156.831 Y64.824 E29.96659
G1 X157.274 Y65.400 E29.99767
G1 X157.914 Y66.335 E30.04611
G1 X158.524 Y67.397 E30.09847
G1 X159.069 Y68.557 E30.15330
G1 X159.374 Y69.351 E30.18968
G1 X159.701 Y70.378 E30.23574
G1 X159.995 Y71.648 E30.29151
G1 X160.165 Y72.802 E30.34140
G1 X160.231 Y73.652 E30.37783
G1 X160.254 Y74.391 E30.40945
G1 X160.242 Y94.516 E31.27008
G1 X160.196 Y95.303 E31.30377
G1 X160.138 Y95.838 E31.32677
G1 X160.001 Y96.742 E31.36587
G1 X159.891 Y97.273 E31.38905
G1 X159.574 Y98.475 E31.44224
G1 X159.259 Y99.386 E31.48344
G1 X158.991 Y100.047 E31.51396
G1 X158.990 Y100.137 E31.51780
G1 X159.158 Y100.552 E31.53695
G1 X159.495 Y101.529 E31.58113
G1 X159.621 Y101.953 E31.60006
G1 X159.820 Y102.771 E31.63605
G1 X159.989 Y103.659 E31.67472
G1 X160.085 Y104.378 E31.70572
G1 X160.151 Y105.227 E31.74215
G1 X160.174 Y105.966 E31.77377
G1 X160.162 Y126.092 E32.63440
G1 X160.087 Y127.171 E32.68068
G1 X159.961 Y128.078 E32.71980
G1 X159.811 Y128.848 E32.75337
G1 X159.580 Y129.761 E32.79362
G1 X159.366 Y130.437 E32.82396
G1 X159.060 Y131.272 E32.86201
G1 X158.550 Y132.396 E32.91476
G1 X158.336 Y132.809 E32.93466
G1 X157.883 Y133.582 E32.97296
G1 X157.491 Y134.187 E33.00381
G1 X156.909 Y134.975 E33.04572
G1 X156.395 Y135.597 E33.08021
G1 X155.869 Y136.168 E33.11339
G1 X155.290 Y136.731 E33.14794
G1 X154.548 Y137.378 E33.19003
G1 X153.972 Y137.821 E33.22110
G1 X153.037 Y138.462 E33.26957
G1 X152.200 Y138.950 E33.31102
G1 X151.339 Y139.382 E33.35221
G1 X150.324 Y139.812 E33.39935
G1 X149.205 Y140.187 E33.44980
G1 X148.177 Y140.447 E33.49516
G1 X147.289 Y140.616 E33.53383
